X: 18509
T: I Do Not Incline
R: jig
M: 6/8
K: Gmajor
|:DB,D G2A|BcB AGA|BGE EGA|BGE EGE|
DB,D G2A|BcB AGA|BGE DEF|GAG G2 G:|
|:BGG AFF|GEE FDD|EFE EGA|BGE EGE|
DB,D G2A|BcB AGA|BGE DEF|GAG G2 G:|

